X: 142
Q: "slow"
M: 3/4
L: 1/8
K: G
V: 1
g3 e Te>d | e2 g2 D>E | G3 d A>G | {F}E4 d>e |\
b3 a Te>d | {d}e2 g2 D>E | G3 d A>B | G4 :|
V: 2 clef=bass middle=d
z2 |\
g2 "6;4"d'2 "5;3"d2 | "5"e2 "6"b2 "6"f2 | g2 G2 g2 | "6;b"a2 d'2 g2 |\
"6"e2 c'2 g2 | c4 z2 | "6"B2 B2 "7 ;6 5"B2 |
c2 C2 z2 | G2 G2 G2 | c4 z2 | "6"Bc "6;4"d2 "5;3"D2 | G4 :|
